rospo-light/16x16/actions/redeyes.svg

<svg height="16" viewBox="0 0 16 16" width="16" xmlns="http://www.w3.org/2000/svg"><path d="m8 3c-1.5508.0151-3.1120906.3692056-4.4628906 1.1347656-.5384.3507-1.184775.8034256-1.671875 1.2597656-.76649.7505901-1.4225344 1.6277219-1.8652344 2.6074219 1.2149 2.6800999 3.8859187 4.6434939 6.8242188 4.9335939 1.9274.21816 3.9443722-.1147 5.6386722-1.068359.5384-.350701 1.184775-.803426 1.671875-1.259766.76649-.7505801 1.422534-1.6257689 1.865234-2.6054689-1.215-2.68-3.885819-4.6456468-6.8242188-4.9355469-.3898799-.0454799-.7832712-.0664162-1.1757812-.0664062zm0 2c1.607-.03561 3.0303 1.4033531 3 3.0019531.0515 1.7668-1.7090187 3.2909379-3.4492188 2.9609379-1.7576-.20638-2.9920624-2.1793098-2.4140624-3.8496098.36916-1.2296 1.5757812-2.1285812 2.8632812-2.1132812zm0 2a1 1.0002 0 0 0 -1 1.0019531 1 1.0002 0 0 0 1 1 1 1.0002 0 0 0 1-1 1 1.0002 0 0 0 -1-1.0019531z" fill="#5294e2"/></svg>

<?xml version="1.0" encoding="UTF-8" standalone="no"?>
<svg xmlns="http://www.w3.org/2000/svg" width="22" height="22" viewBox="0 0 22 22">
 <defs id="defs10">
  <style type="text/css" id="current-color-scheme">
   .ColorScheme-Text { color:#5c616c; } .ColorScheme-Highlight { color:#5294e2; }
  </style>
 </defs>
 <path style="fill:currentColor" class="ColorScheme-Highlight" transform="translate(3 3)" d="M 8 3 C 6.4492 3.0151 4.8879094 3.3692056 3.5371094 4.1347656 C 2.9987094 4.4854656 2.3523344 4.9381912 1.8652344 5.3945312 C 1.0987444 6.1451213 0.4427 7.0222531 0 8.0019531 C 1.2149 10.682053 3.8859187 12.645447 6.8242188 12.935547 C 8.7516188 13.153707 10.768591 12.820847 12.462891 11.867188 C 13.001291 11.516487 13.647666 11.063762 14.134766 10.607422 C 14.901256 9.8568419 15.5573 8.9816531 16 8.0019531 C 14.785 5.3219531 12.114181 3.3563063 9.1757812 3.0664062 C 8.7859013 3.0209263 8.39251 2.99999 8 3 z M 8 5 C 9.607 4.96439 11.0303 6.4033531 11 8.0019531 C 11.0515 9.7687531 9.2909813 11.292891 7.5507812 10.962891 C 5.7931812 10.756511 4.5587188 8.7835812 5.1367188 7.1132812 C 5.5058788 5.8836812 6.7125 4.9847 8 5 z M 8 7 A 1 1.0002 0 0 0 7 8.0019531 A 1 1.0002 0 0 0 8 9.0019531 A 1 1.0002 0 0 0 9 8.0019531 A 1 1.0002 0 0 0 8 7 z"/>
</svg>
